electron/icon/favicon_invert.svg

<?xml version="1.0" encoding="UTF-8" standalone="no"?>
<svg
   xmlns:dc="http://purl.org/dc/elements/1.1/"
   xmlns:cc="http://creativecommons.org/ns#"
   xmlns:rdf="http://www.w3.org/1999/02/22-rdf-syntax-ns#"
   xmlns:svg="http://www.w3.org/2000/svg"
   xmlns="http://www.w3.org/2000/svg"
   xmlns:sodipodi="http://sodipodi.sourceforge.net/DTD/sodipodi-0.dtd"
   xmlns:inkscape="http://www.inkscape.org/namespaces/inkscape"
   inkscape:export-ydpi="96"
   inkscape:export-xdpi="96"
   inkscape:export-filename="D:\1autre projet\IN18\electron\icon\favicon_invert.png"
   viewBox="0 0 256.00001 256.00001"
   version="1.1"
   id="svg12"
   sodipodi:docname="favicon_invert.svg"
   inkscape:version="0.92.4 (5da689c313, 2019-01-14)"
   width="256"
   height="256">
  <metadata
     id="metadata16">
    <rdf:RDF>
      <cc:Work
         rdf:about="">
        <dc:format>image/svg+xml</dc:format>
        <dc:type
           rdf:resource="http://purl.org/dc/dcmitype/StillImage" />
        <dc:title></dc:title>
      </cc:Work>
    </rdf:RDF>
  </metadata>
  <sodipodi:namedview
     inkscape:document-rotation="0"
     pagecolor="#ffffff"
     bordercolor="#666666"
     borderopacity="1"
     objecttolerance="10"
     gridtolerance="10"
     guidetolerance="10"
     inkscape:pageopacity="0"
     inkscape:pageshadow="2"
     inkscape:window-width="1366"
     inkscape:window-height="705"
     id="namedview14"
     showgrid="false"
     inkscape:zoom="0.8823783"
     inkscape:cx="59.517669"
     inkscape:cy="79.795812"
     inkscape:window-x="-8"
     inkscape:window-y="-8"
     inkscape:window-maximized="1"
     inkscape:current-layer="svg12"
     inkscape:pagecheckerboard="true" />
  <defs
     id="defs4">
    <style
       id="style2">.cls-1{fill:#fff;}.cls-2{opacity:0.96;font-size:72px;fill:#5260ff;font-family:Roboto-Bold, Roboto;font-weight:700;}</style>
  </defs>
  <g
     data-name="Calque 2"
     id="Calque_2-2"
     transform="matrix(1.2822414,0,0,1.2822414,2.207927e-6,18.824154)">
    <path
       d="M 32.089844,0 C 14.369844,0 0,13.200703 0,29.470703 v 78.599607 c 0,16.27 14.369844,29.44875 32.089844,29.46875 h 10.689453 v 26.20117 c 0,3.61 3.190859,6.54883 7.130859,6.54883 a 7.6,7.6 0 0 0 4.570313,-1.51953 L 95.25,137.53906 h 72.31055 c 17.72,-0.02 32.08984,-13.19875 32.08984,-29.46875 V 29.470703 C 199.63039,13.200703 185.28055,0 167.56055,0 Z M 157.94922,42.349609 c 4.96875,0 8.90625,1.289063 11.8125,3.867188 2.92969,2.554687 4.39453,6.035156 4.39453,10.441406 0,2.484375 -0.62109,4.6875 -1.86328,6.609375 -1.24219,1.921875 -2.95313,3.457031 -5.13281,4.605469 2.48437,1.195312 4.45312,2.847656 5.90625,4.957031 1.45312,2.085937 2.17968,4.546875 2.17968,7.382813 0,4.546875 -1.54687,8.144531 -4.64062,10.792968 -3.09375,2.625 -7.30078,3.9375 -12.62109,3.9375 -5.32032,0 -9.53907,-1.324218 -12.65626,-3.972656 -3.11718,-2.648437 -4.67578,-6.234375 -4.67578,-10.757812 0,-2.835938 0.72656,-5.308594 2.17969,-7.417969 1.45312,-2.109375 3.41016,-3.75 5.87109,-4.921875 -2.17968,-1.148438 -3.89062,-2.683594 -5.13281,-4.605469 -1.21875,-1.921875 -1.82812,-4.125 -1.82812,-6.609375 0,-4.359375 1.45312,-7.828125 4.35937,-10.40625 2.90625,-2.601563 6.85547,-3.902344 11.84766,-3.902344 z m -34.91016,0.632813 h 1.08985 V 94.240234 H 113.96875 V 55.076172 l -12.12891,3.761719 v -8.261719 z m -93.691404,0.07031 h 10.546875 v 51.1875 H 29.347656 Z m 20.285156,0 h 10.546876 l 20.566406,33.75 v -33.75 h 10.511718 v 51.1875 H 80.710938 L 60.179688,60.560547 V 94.240234 H 49.632812 Z m 108.316408,7.488282 c -1.89843,0 -3.375,0.585937 -4.42969,1.757812 -1.05469,1.171875 -1.58203,2.789063 -1.58203,4.851563 0,2.039062 0.52734,3.679687 1.58203,4.921875 1.05469,1.242188 2.54297,1.863281 4.46485,1.863281 1.92187,0 3.39843,-0.621093 4.42968,-1.863281 1.05469,-1.242188 1.58203,-2.882813 1.58203,-4.921875 0,-1.992188 -0.52734,-3.585938 -1.58203,-4.78125 -1.05468,-1.21875 -2.54296,-1.828125 -4.46484,-1.828125 z m -0.0352,21.585937 c -2.15625,0 -3.87891,0.667969 -5.16797,2.003906 -1.28906,1.3125 -1.93359,3.09375 -1.93359,5.34375 0,2.179688 0.63282,3.9375 1.89844,5.273438 1.26562,1.335937 3.02344,2.003906 5.27344,2.003906 2.20312,0 3.92578,-0.644531 5.16796,-1.933594 1.26563,-1.289062 1.89844,-3.070312 1.89844,-5.34375 0,-2.226562 -0.64453,-4.007812 -1.93359,-5.34375 -1.28906,-1.335937 -3.02344,-2.003906 -5.20313,-2.003906 z"
       style="fill:#5260ff;fill-opacity:1"
       id="path6"
       inkscape:connector-curvature="0" />
    <g
       aria-label="IN18"
       transform="translate(24.11,94.24)"
       id="text8"
       style="font-weight:700;font-size:72px;font-family:Roboto-Bold, Roboto;opacity:0.95999995;fill:#5260ff"
       class="cls-2" />
  </g>
</svg>

<?xml version="1.0" encoding="UTF-8" standalone="no"?>
<svg
   xmlns:dc="http://purl.org/dc/elements/1.1/"
   xmlns:cc="http://creativecommons.org/ns#"
   xmlns:rdf="http://www.w3.org/1999/02/22-rdf-syntax-ns#"
   xmlns:svg="http://www.w3.org/2000/svg"
   xmlns="http://www.w3.org/2000/svg"
   xmlns:sodipodi="http://sodipodi.sourceforge.net/DTD/sodipodi-0.dtd"
   xmlns:inkscape="http://www.inkscape.org/namespaces/inkscape"
   inkscape:export-ydpi="96"
   inkscape:export-xdpi="96"
   inkscape:export-filename="C:\Users\Vincent.OMEGA\Documents\project\IN18\src\assets\icon\favicon_invert.png"
   viewBox="0 0 199.65 170.29"
   version="1.1"
   id="svg12"
   sodipodi:docname="favicon_invert.svg"
   inkscape:version="1.0 (4035a4fb49, 2020-05-01)">
  <metadata
     id="metadata16">
    <rdf:RDF>
      <cc:Work
         rdf:about="">
        <dc:format>image/svg+xml</dc:format>
        <dc:type
           rdf:resource="http://purl.org/dc/dcmitype/StillImage" />
        <dc:title />
      </cc:Work>
    </rdf:RDF>
  </metadata>
  <sodipodi:namedview
     inkscape:document-rotation="0"
     pagecolor="#ffffff"
     bordercolor="#666666"
     borderopacity="1"
     objecttolerance="10"
     gridtolerance="10"
     guidetolerance="10"
     inkscape:pageopacity="0"
     inkscape:pageshadow="2"
     inkscape:window-width="1920"
     inkscape:window-height="1017"
     id="namedview14"
     showgrid="false"
     inkscape:zoom="0.44118915"
     inkscape:cx="635.99874"
     inkscape:cy="759.12964"
     inkscape:window-x="1912"
     inkscape:window-y="192"
     inkscape:window-maximized="1"
     inkscape:current-layer="svg12" />
  <defs
     id="defs4">
    <style
       id="style2">.cls-1{fill:#fff;}.cls-2{opacity:0.96;font-size:72px;fill:#5260ff;font-family:Roboto-Bold, Roboto;font-weight:700;}</style>
  </defs>
  <g
     data-name="Calque 2"
     id="Calque_2-2">
    <path
       d="M 32.089844 0 C 14.369844 0 0 13.200703 0 29.470703 L 0 108.07031 C 0 124.34031 14.369844 137.51906 32.089844 137.53906 L 42.779297 137.53906 L 42.779297 163.74023 C 42.779297 167.35023 45.970156 170.28906 49.910156 170.28906 A 7.6 7.6 0 0 0 54.480469 168.76953 L 95.25 137.53906 L 167.56055 137.53906 C 185.28055 137.51906 199.65039 124.34031 199.65039 108.07031 L 199.65039 29.470703 C 199.63039 13.200703 185.28055 0 167.56055 0 L 32.089844 0 z M 157.94922 42.349609 C 162.91797 42.349609 166.85547 43.638672 169.76172 46.216797 C 172.69141 48.771484 174.15625 52.251953 174.15625 56.658203 C 174.15625 59.142578 173.53516 61.345703 172.29297 63.267578 C 171.05078 65.189453 169.33984 66.724609 167.16016 67.873047 C 169.64453 69.068359 171.61328 70.720703 173.06641 72.830078 C 174.51953 74.916015 175.24609 77.376953 175.24609 80.212891 C 175.24609 84.759766 173.69922 88.357422 170.60547 91.005859 C 167.51172 93.630859 163.30469 94.943359 157.98438 94.943359 C 152.66406 94.943359 148.44531 93.619141 145.32812 90.970703 C 142.21094 88.322266 140.65234 84.736328 140.65234 80.212891 C 140.65234 77.376953 141.3789 74.904297 142.83203 72.794922 C 144.28515 70.685547 146.24219 69.044922 148.70312 67.873047 C 146.52344 66.724609 144.8125 65.189453 143.57031 63.267578 C 142.35156 61.345703 141.74219 59.142578 141.74219 56.658203 C 141.74219 52.298828 143.19531 48.830078 146.10156 46.251953 C 149.00781 43.65039 152.95703 42.349609 157.94922 42.349609 z M 123.03906 42.982422 L 124.12891 42.982422 L 124.12891 94.240234 L 113.96875 94.240234 L 113.96875 55.076172 L 101.83984 58.837891 L 101.83984 50.576172 L 123.03906 42.982422 z M 29.347656 43.052734 L 39.894531 43.052734 L 39.894531 94.240234 L 29.347656 94.240234 L 29.347656 43.052734 z M 49.632812 43.052734 L 60.179688 43.052734 L 80.746094 76.802734 L 80.746094 43.052734 L 91.257812 43.052734 L 91.257812 94.240234 L 80.710938 94.240234 L 60.179688 60.560547 L 60.179688 94.240234 L 49.632812 94.240234 L 49.632812 43.052734 z M 157.94922 50.541016 C 156.05079 50.541016 154.57422 51.126953 153.51953 52.298828 C 152.46484 53.470703 151.9375 55.087891 151.9375 57.150391 C 151.9375 59.189453 152.46484 60.830078 153.51953 62.072266 C 154.57422 63.314454 156.0625 63.935547 157.98438 63.935547 C 159.90625 63.935547 161.38281 63.314454 162.41406 62.072266 C 163.46875 60.830078 163.99609 59.189453 163.99609 57.150391 C 163.99609 55.158203 163.46875 53.564453 162.41406 52.369141 C 161.35938 51.150391 159.8711 50.541016 157.94922 50.541016 z M 157.91406 72.126953 C 155.75781 72.126953 154.03515 72.794922 152.74609 74.130859 C 151.45703 75.443359 150.8125 77.224609 150.8125 79.474609 C 150.8125 81.654297 151.44532 83.412109 152.71094 84.748047 C 153.97656 86.083984 155.73438 86.751953 157.98438 86.751953 C 160.1875 86.751953 161.91016 86.107422 163.15234 84.818359 C 164.41797 83.529297 165.05078 81.748047 165.05078 79.474609 C 165.05078 77.248047 164.40625 75.466797 163.11719 74.130859 C 161.82813 72.794922 160.09375 72.126953 157.91406 72.126953 z "
       style="fill:#5260ff;fill-opacity:1"
       id="path6" />
    <g
       aria-label="IN18"
       transform="translate(24.11,94.24)"
       id="text8"
       style="font-weight:700;font-size:72px;font-family:Roboto-Bold, Roboto;opacity:0.96;fill:#5260ff"
       class="cls-2" />
  </g>
</svg>
